M48
;DRILL FILE
;Generated by LibrePCB 0.1.4
;Creation Date: 2020-05-17T22:52:56
FMAT,2
METRIC,TZ
T1C0.3
T2C0.8
T3C0.8128
T4C0.9
T5C2.0
%
G90
G05
M71
T1
X17.145Y24.13
X38.1Y31.115
X14.605Y32.385
X44.45Y31.115
X19.685Y32.385
X22.225Y24.13
T2
X22.225Y36.195
X14.605Y36.195
X14.605Y71.755
X19.685Y36.195
X17.145Y71.755
X17.145Y36.195
X19.685Y71.755
X24.765Y71.755
X12.065Y71.755
X22.225Y71.755
X19.685Y18.415
X14.605Y18.415
X22.225Y18.415
X17.145Y18.415
X50.165Y62.865
X50.165Y65.405
X73.025Y50.165
X73.025Y57.785
X73.025Y60.325
X73.025Y67.945
X73.025Y40.005
X73.025Y45.085
X73.025Y55.245
X50.165Y34.925
X50.165Y42.545
X50.165Y47.625
X73.025Y34.925
X50.165Y67.945
X50.165Y37.465
X73.025Y52.705
X50.165Y45.085
X73.025Y42.545
X50.165Y40.005
X73.025Y37.465
X73.025Y62.865
X73.025Y65.405
X50.165Y60.325
X50.165Y55.245
X73.025Y47.625
X50.165Y32.385
X73.025Y32.385
X50.165Y50.165
X50.165Y57.785
X50.165Y52.705
T3
X40.64Y45.085
X40.64Y52.705
T4
X85.09Y65.405
X85.09Y67.945
X34.925Y39.37
X34.925Y41.91
T5
X86.995Y76.835
X86.995Y2.54
X3.175Y76.835
X3.175Y2.54
T0
M30
